X:1
T:Title
%%score { ( 1 4 ) | ( 2 3 ) }
L:1/8
M:4/4
K:Eb
V:1 treble nm="Grand Piano"
V:4 treble 
V:2 bass 
V:3 bass 
V:1
 z4 z2[Q:1/4=108] G>F | E2 G2 [GB]2 e2 | c4 B2 [AB]2 | [GB]A[EG]A [EGB]2 [B,EG]2 |[M:3/4] [B,DF]6 | %5
[M:1/4] D->[DF] |[M:4/4] E2 G2 [GB]2 e2 | c4 B2 e2 | dcB=A d2 c2 |[M:3/4] [DB]6 |[M:1/4] [GB]2 | %11
[M:4/4] [GB][FA][EG][FA] [GB]2 [Ge]2 | [Ac]4 [GB]2 [GB]2 | [GB]A[EG]A [EGB]2 [B,EG]2 | %14
[M:3/4] [B,DF]6 |[M:1/4] D->[DF] |[M:4/4] E2 G2 [GB]2 e2 | c4 B2 [Ad]2 | [Ge]2 z z/ F/ G2 [DF]2 | %19
[M:3/4] E6 |] %20
V:2
 z4 z2 B,2 | [E,G,]2 [E,B,E]2 [E,E]2 [G,B,E]2 | [A,E]4 [G,B,E]2 [F,D]2 | %3
 z[K:treble] F z F[K:bass] E,2 E,2 |[M:3/4] B,,6 |[M:1/4] z z/ A,/ | %6
[M:4/4] [E,G,]2 [E,B,E]2 [E,E]2[K:treble] [G,B,E]2 | [A,E]4 [G,B,E]2 [G,B,E]2 | %8
 [F,F]-[F,=A,F]DC[K:bass] [F,B,F]2 [F,A,E]2 |[M:3/4] [B,,B,]6 |[M:1/4] [E,E]2 | %11
[M:4/4] [E,E]2 [E,B,]2 [E,E]2 [E,B,]2 | [E,E]4 [E,E]2 [E,E]2 | z[K:treble] F z F[K:bass] E,2 E,2 | %14
[M:3/4] B,,6 |[M:1/4] z z/ A,/ |[M:4/4] [E,G,]2 [E,B,E]2 [E,E]2 [G,B,E]2 | %17
 [A,E]4 [G,B,E]2 [F,B,]2 | [E,B,]2 [G,B,]>[A,C] [B,E]2 [B,,A,]2 |[M:3/4] [E,G,]6 |] %20
V:3
 z4 z2 [E,E]->[E,A,E] | x8 | x8 | [E,E]2[K:treble] E,2[K:bass] z4 |[M:3/4] x6 |[M:1/4] B,,2 | %6
[M:4/4] x6[K:treble] x2 | x8 | .B,2 [F,F]2[K:bass] z4 |[M:3/4] x6 |[M:1/4] x2 |[M:4/4] x8 | x8 | %13
 [E,E]2[K:treble] E,2[K:bass] z4 |[M:3/4] x6 |[M:1/4] B,,2 |[M:4/4] x8 | x8 | x8 |[M:3/4] x6 |] %20
V:4
 x8 | x8 | x8 | x8 |[M:3/4] x6 |[M:1/4] [B,G]3/2 z/ |[M:4/4] x8 | x8 | x8 |[M:3/4] x6 |[M:1/4] x2 | %11
[M:4/4] x8 | x8 | x8 |[M:3/4] x6 |[M:1/4] [B,G]3/2 z/ |[M:4/4] x8 | x8 | z2 E2 z4 |[M:3/4] x6 |] %20

